!!!!SEGMENT: pl-lzu--m-15111--001-008_noskowski-zygmunt--spiewnik-dla-dzieci-op-34-8-choinka-w-lesie.krn
!!!cenid: 18xx:4705
!!!COM: Noskowski, Zygmunt
!!!COM-rismID: pe106604
!!!CDT: 1846/05/02-1909/07/23
!!!CNT: Polish
!!!GTL: Śpiewnik dla dzieci, op. 34
!!!OTL: 8. Choinka w lesie
!!!OMV: 008
!!!PDT: 1890
!!!AGN: Secular; Song; Children
!!!YEC: Copyright 2022 Narodowy Instytut Fryderyka Chopina (https://polishscores.org)
!!!YEM: License CC-BY-4.0 (https://creativecommons.org/licenses/by/4.0)
!!!SMS-siglum: PL-LŹu
!!!SMS-shelfmark: M 15111
!!!SMS-variant:
!!!SMS-altvar:
!!!SMS-shelfwork: 001-008 G
!!!NIFC-rismSourceID: 1001234040
!!!NIFC-rismChildID: 1001234040
!!!NIFC-islandoraID: pl-lzu:5455
!!!URL-pdf-islandora: https://repozytorium.nifc.pl/islandora/object/pl-lzu%3A5455/datastream/PDF/view
!!!URL-scan: https://polish.musicsources.pl/pl/lokalizacje/galeria/druki-muzyczne/23228/14 @EN{Scan on Polish Music Sources Website} @PL{Skany w portalu Dziedzictwo Muzyki Polskiej w otwartym dostępie}
!!!IIIF:
!!!ONB-nifc:
!!!AIN: 2 piano 1 vox
!!!key: d
!!!OMD: Moderato.
**kern	**kern	**dynam	**kern	**text	**dynam
*part3	*part2	*part2	*part1	*part1	*part1
*staff2	*staff2	*staff2/3	*staff1	*staff1	*staff1
*I"[Piano]	*I"[Piano]	*	*I"[Voice]	*	*
*I'pf	*I'pf	*	*I'V	*	*
*Ipiano	*Ipiano	*	*Ivox	*	*
*ICklav	*ICklav	*	*ICvox	*	*
*IGacmp	*IGacpm	*	*IGsolo	*	*
*clefF4	*clefG2	*	*clefG2	*	*
*k[b-]	*k[b-]	*	*k[b-]	*	*
*d:	*d:	*	*d:	*	*
*M4/4	*M4/4	*	*M4/4	*	*
*met(c)	*met(c)	*	*met(c)	*	*
=1	=1	=1	=1	=1	=1
!	!LO:TX:a:i:t=Umiarkowanie.	!	!	!	!
2.D 2.DD/	2.a 2.f 2.d 2.A/	p	2r	.	.
.	.	.	4r	.	p
!	!	!	!LO:TX:a:i:t=Jeden głos.	!	!
(4A\	(4a/	.	4a/	A	.
=2	=2	=2	=2	=2	=2
4d\	4dd\	.	4dd\	kto	.
8c\L	8cc\L	.	8cc\	tę	.
8A\J	8a\J	.	8a/	cho-	.
4B-\	4b-/	.	4b-/	-in-	.
4G\)	4g/)	.	4g,/	-kę	.
=3	=3	=3	=3	=3	=3
(8F\L	(8f/L	.	8f/	Za-	.
8G\	8g/	.	8g/	-siał	.
8A\	8a/	.	8a/	w ciem-	.
8E\J	8e/J	.	8e/	-nym	.
4F\	4f/	.	4f/	le-	.
4D;\)	4d;/)	.	4d;/	-sie?	.
!!LO:LB:g=original
=4	=4	=4	=4	=4	=4
*	*	*	*^	*	*
!	!LO:TX:c:i:t=leggiero	!LO:DY:rj	!LO:TX:a:i:t=Chór.	!	!	!
8cL 8B-\	8e/L	p	8e/	8e\	Za-	.
8c 8B-\	8f 8d/	.	8f 8d/	8ryy	-siał	.
8c 8B-\	8g 8e/	.	8g 8e/	4ryy	ci	.
8cJ 8B-\	8aJ 8e/	.	8a 8c/	.	ją	.
8cL 8A\	8f/L	<	8f 8c/	2ryy	ten	<
8c 8G\	8e/	.	8e 8c/	.	wia-	.
8c 8A\	8f/	.	8f 8c/	.	-te-	.
8cJ 8F\	8aJ 8f/	[	8a 8f,/	.	-rek	[
=5	=5	=5	=5	=5	=5	=5
8cL 8D\	8ccL 8a/	.	8cc 8a\	4.ryy	Co	.
8cJ 8D\	8ccJ 8a/	>	8cc 8a\	.	na-	.
8cL 8E\	8b-L 8g/	.	8b- 8g/	.	-sion-	.
8B-J 8C\	(16aL 16e/	.	16a/LL	8e\	-ka	.
.	16g/JJ)	]	16g/JJ	.	.	.
4A 4F\	4f/	.	4f/	4f\	nie-	.
8A 8F;\	8f 8c;/	.	8f;/	8f\	-sie.	.
*	*	*	*v	*v	*	*
!!LO:PB:g=original
=||	=||	=||	=||	=||	=||
!	!	!	!LO:TX:a:i:t=Jeden głos.	!	!LO:DY:rj
8A\	8a/	mf	8a/	A	mf
!	!LO:TX:c:i:rj:t=legato	!	!	!	!
=6	=6	=6	=6	=6	=6
4A 4D\	4dd 4f/	.	4dd\	kto	.
8GL 8E\	8ccL 8g/	.	8cc\	tę	.
8cJ 8F\	8aJ 8f/	.	8a/	cho-	.
4B- 4D\	4b- 4f/	.	4b-/	-in-	.
4B- 4E\	4g 4c/	.	4g,/	-kę	.
=7	=7	=7	=7	=7	=7
8AL 8F\	8fL 8c/	.	8f/	O-	.
8G 8E\	8g 8c/	.	8g/	-grzał	.
8F 8D\	8a 8f/	.	8a/	w ciem-	.
8AJ 8C\	8e/J	.	8e/	-nym	.
4F 4BB-\	4f 4d/	.	4f/	bo-	.
4F 4D;\	4d 4A;/	.	4d;/	-ru?	.
!!LO:LB:g=original
=8	=8	=8	=8	=8	=8
!	!	!LO:DY:rj	!LO:TX:a:i:t=Chór.	!	!
8GL 8C\	8eL 8c/	p	8e 8c/	To	.
8A 8C\	8f 8d/	.	8f 8d/	o-	.
8B- 8C\	8g 8e/	.	8g 8e/	-grza-	.
8cJ 8C\	8aJ 8e/	<	8a 8e/	-ło	<
8AL 8D\	8fL 8d/	.	8f 8d/	ją	.
8G 8D\	8e 8d/	.	8e 8d/	sło-	.
8A 8D\	8f 8d/	[	8f 8d/	-ne-	[
8FJ 8D\	8aJ 8d/	.	8a 8d,/	-czko	.
=9	=9	=9	=9	=9	=9
*	*	*	*^	*	*
!	!	!LO:DY:rj	!	!	!	!
8AL 8AA\	8ccL 8e/	mf	8cc 8e/	4.ryy	Z nie-	.
8AJ 8AA\	8ccJ 8e/	.	8cc 8e/	.	-bie-	>
8FL 8BB-\	8b-L 8d/	>	8b- 8d/	.	-skie-	.
8B-J 8C\	(16aL 16e/	.	16a/LL	8e\	-go	.
.	16g/JJ)	.	16g/JJ	.	.	.
4A 4F\	4f/	.	4f/	4f\	dwo-	.
8F 8C 8FF;/	8f 8c 8A;/	]	8f;/	8f\	-ru.	]
*	*	*	*v	*v	*	*
!!LO:LB:g=original
=||	=||	=||	=||	=||	=||
!	!	!LO:DY:rj	!LO:TX:a:i:t=Jeden głos.	!	!LO:DY:rj
8r	8a 8A/	f	8a/	A	f
=10	=10	=10	=10	=10	=10
!	!LO:TX:b:i:t=gravimente	!	!	!	!
4GG 4GGG/	4dd 4b- 4g 4d/	.	4dd\	kto	.
8AAL 8AAA/	8ccL 8a 8e 8c/	.	8cc\	tę	.
8CJ 8CC/	8aJ 8e 8A/	.	8a/	cho-	.
4BB- 4BBB-/	4b- 4f 4d 4B-/	.	4b-\	-in-	.
4C 4CC/	4g 4e 4c 4G/	.	4g,/	-kę	.
=11	=11	=11	=11	=11	=11
8DL 8DD/	8fL 8d 8A 8F/	.	8f/	Po-	.
8BB- 8BBB-/	8g 8d 8G/	.	8g/	-ił	.
8AA 8AAA/	8a 8e 8c 8A/	.	8a/	w ciem-	.
8CJ 8CC/	8eJ 8c 8G 8E/	.	8e/	-nym	.
4FF 4FFF/	4f 4c 4A 4F/	.	4f/	ga-	.
4BB- 4BBB-;<\	4d 4B-< 4F< 4D<;/	.	4d;/	-ju?	.
!!LO:PB:g=original
=12	=12	=12	=12	=12	=12
!	!	!LO:DY:rj	!LO:TX:a:i:t=Chór.	!	!LO:DY:rj
8GL 8BB-\	8eL 8d/	p	8e 8d/	Ja-	p
8GJ 8BB-\	8f 8d/	.	8f 8d/	-sne	.
8EL 8AA/	8g 8c#X/	.	8g 8c#X/	ją	.
8EJ 8AA/	8aJ 8c#/	.	8a 8c#/	po-	.
8FL 8D\	8fL 8d/	.	8f 8d/	-i-	.
8B- 8D\	8e 8d/	.	8e 8d/	-ły	.
8A 8D\	8f 8d/	.	8f 8d/	ro-	.
8FJ 8D\	8aJ 8d/	.	8a 8d/	-sy	.
=13	=13	=13	=13	=13	=13
*	*	*	*^	*	*
8GL 8E\	8ccL 8c/	.	8cc 8c/	4.ryy	I	.
8GJ 8E\	8ccJ 8c/	.	8cc 8c/	.	wo-	.
8GL 8GG\	8b-L 8d/	.	8b- 8d/	.	-da	.
8EJ 8AA\	(16aL 16c#X/	.	16a/LL	8c#X\	z ru-	.
.	16g/JJ	.	16g/JJ	.	.	.
4F 4D\	4f 4d/)	.	4f 4d/	4ryy	-cza-	.
8D 8DD;/	8f 8d 8A;/	.	8f 8d;/	8ryy	-ju.	.
*	*	*	*v	*v	*	*
!!LO:LB:g=original
=||	=||	=||	=||	=||	=||
!	!	!	!LO:TX:a:i:t=Jeden głos.	!	!LO:DY:rj
8r	8a 8A/	pp	8a/	A	pp
=14	=14	=14	=14	=14	=14
4BB- 4BBB-/	4dd 4b- 4f 4d/	.	4dd\	kto	.
8CL 8CC/	8ccL 8g 8e-X 8c/	.	8cc\	tę	.
8E-XJ 8EE-X/	8aJ 8f 8c/	.	8a/	cho-	.
4D-X 4DD-X/	4b- 4f 4B-/	.	4b-/	-in-	.
4C 4CC/	4g 4en 4B-/	.	4g/	-kę	.
=15	=15	=15	=15	=15	=15
*	*^	*	*	*	*
4.GG 4.GGG/	8fL 8dn/	8Bn\	.	8f/	Wy-	.
.	8g 8e/	4B\	.	8g/	-ho-	.
.	8a 8f/	.	.	8a/	-do-	.
8C 8CC/	8eJ 8c/	8G\	.	8e/	-wał	.
4AA-X 4AAA-X/	4f 4c 4F/	2ryy	.	4f/	z ziar-	.
4GG 4GGG;/	4d 4B 4F;/	.	.	4d;/	-na?	.
*	*v	*v	*	*	*	*
=16	=16	=16	=16	=16	=16
!	!	!LO:DY:rj	!	!	!
4.C 4.CC/	8eL 8c 8E/	p	8e 8c/	Wy-	p
!	!	!	!LO:TX:a:i:t=Chór	!	!
.	8f 8d 8F/	.	8f 8d/	-cho-	.
.	8g 8e 8G/	.	8g 8e/	-wa-	.
8AA 8AAA/	8aJ 8f 8A/	<	8a 8f/	-ła	<
4.D 4.DD/	8fL 8d 8F/	.	8f 8d/	ją	.
.	8e 8c#X 8E/	[	8e 8c#X/	ma-	[
.	8f 8d 8F/	.	8f 8d/	-teń-	.
16CnLL 16CCn/	8aJ 8f 8A/	.	8a 8f/	-ka	.
16BB-JJ 16BBB-/	.	.	.	.	.
!!LO:LB:g=original
=17	=17	=17	=17	=17	=17
*	*	*	*^	*	*
4AA 4AAA/	8ccL 8a 8c/	.	8cc 8a/	4.ryy	Zie-	.
.	8ccJ 8a 8c/	.	8cc 8a/	.	-mia	.
8BB-L 8BBB-/	8b-L 8g 8B-/	.	8b- 8g/	.	na-	.
8CJ 8CC/	(16aL 16e 16B-/	.	16a/LL	8e\	-sza	.
.	16g/JJ)	.	16g/JJ	.	.	.
2C 2FF/	4f 4A/	.	4f/	4f\	czar-	.
.	4f 4A/	.	4f,/	4f\	-na!	.
*	*	*	*v	*v	*	*
=18	=18	=18	=18	=18	=18
!	!	!LO:DY:rj	!	!	!LO:DY:rj
4BB- 4BBB-/	8ddL 8b- 8d/	f	8dd 8b-\	Wy-	f
.	8ddJ 8b- 8d/	.	8dd 8b-\	-cho-	.
4GG 4GGG/	8eeL 8cc 8e/	.	8ee 8cc\	-wa-	.
.	8ddJ 8b- 8d/	.	8dd 8b-\	-ła	.
8AAL 8AAA/	8ccL 8a 8c/	.	8cc 8a\	ją	.
8FFJ 8FFF/	8ffJ 8a 8f/	.	8ff 8a\	ma-	.
8AAL 8AAA/	8eeL 8cc 8e/	.	8ee 8cc\	-teń-	.
8BB-J 8BBB-/	8ddJ 8b- 8d/	.	8dd 8b-\	-ka	.
!!LO:PB:g=original
=19	=19	=19	=19	=19	=19
4GG 4GGG/	8ccL 8a 8c/	.	8cc 8a/	Zie-	.
.	8b- 8g 8B-/	.	8b- 8g/	-mia	.
8AAL 8AAA/	8a 8f 8A/	.	8a 8f/	na-	.
8BB-J 8BBB-/	8gJ 8e 8G/	.	8g 8e,/	-sza	.
4G 4GG/	4b- 4d/	>	(4b- (4d/	czar-	>
4G 4E 4AA\	4a 4c#X/	]	4a 4c#X/))	.	]
=20	=20	=20	=20	=20	=20
*	*	*	*^	*	*
*ped	*	*	*	*	*	*
!	!	!LO:DY:rj	!	!	!	!LO:DY:rj
2F 2D\	2d 2A/	p >	[2d/	[2d\	-na!	p
!	!	!LO:DY:rj	!	!	!	!
4A 4D\	4dd 4f/	] pp	4d/]	4d\]	.	.
4A 4D\	4dd 4f/	.	4r	4ryy	.	.
*	*	*	*v	*v	*	*
=21	=21	=21	=21	=21	=21
[2A [2D\	[2dd [2f/	.	1r	.	.
4A] 4D\]	4dd] 4f/]	.	.	.	.
*Xped	*	*	*	*	*
.	.	.	.	.	.
4r	4r	.	.	.	.
==	==	==	==	==	==
*-	*-	*-	*-	*-	*-
!!!system-decoration: p1{p2}
!!!RDF**kern: > = above
!!!RDF**kern: < = below
!!!ENC: Andrzej Gręziak
!!!END: 2025-03-04
!!!ENC: Marta Lawrence
!!!END: 2025-03-20
